X: 3
T: Ballyhoura Mountains, The
T: Terry &quot;Cuz&quot; Teahan's
T: Cuz Teahan's
T: Teahan's Favorite 
T: Teahan's Favourite 
M: 2/4
L: 1/8
R: polka
K: GMaj
|: B2 AG | EG D2 | B2  AG | A/B/c d2 |
B2 AG | EG D2 | B2 dB | AG G2 :|
|: ge ge | dB AG | ge ge | A/B/c d2 |
ge ge | dB AG | B2 dB | AG G2 :|
